X:1
T:[ID 11-29d]
T:[ID 11-29d]
T:Bezeichnung standardisiert: Walzer Nr 15 Walzer
T:Urheber unbekannt Datum in der hier transkribierten schriftlichen Quelle: vermutlich um 1800
C:Urheber unbekannt
C:Datum in der hier transkribierten schriftlichen Quelle: vermutlich um 1800
L:1/8
M:3/8
K:Bb
V:1 treble 
V:1
 (B/d/) | F (B/d/)F | [DBf]2 d/B/ | (c/e/)F (c/e/) | B/d/F B/d/ | F B/d/F | [DBf]2 d/B/ | %7
 c/e/ F/A/c/A/ | B2 :: b | a/b/c'/a/f/a/ | a/c'/d'/e'/f'/d'/ | f'/e'/d'/c'/b/a/ | %13
 b/>a/b/4 d'/b/f/b/ | a/b/c'/b/f/a/ | b/a/b/c'/d'/b/ | c'/d'/e'/d'/b/c'/ | d'b ::[K:Eb]{e} c' | %19
 b(b/=a/b/g/) | e2 g | B2 (c/d/) | (e/d/)(e/g/)(a/e'/) | b(b/a/b/g/) | e(e/d/)(e/g/) | B>cd | fe :| %27

